docs/assets/twitter.svg

<svg width="36" height="37" viewBox="0 0 36 37" fill="none" xmlns="http://www.w3.org/2000/svg">
<circle cx="18" cy="18.4297" r="18" fill="#F0F3FF"/>
<path d="M24.7968 14.9475C25.4664 14.4453 26.0691 13.8426 26.5378 13.1395C25.9352 13.4074 25.232 13.6083 24.5289 13.6752C25.2655 13.2399 25.8012 12.5703 26.0691 11.7333C25.3994 12.135 24.6294 12.4364 23.8593 12.6038C23.1896 11.9007 22.2856 11.4989 21.2811 11.4989C19.3392 11.4989 17.7655 13.0725 17.7655 15.0145C17.7655 15.2824 17.799 15.5502 17.866 15.8181C14.953 15.6507 12.3414 14.2444 10.6003 12.135C10.299 12.6373 10.1316 13.2399 10.1316 13.9096C10.1316 15.1149 10.7343 16.1864 11.7053 16.8225C11.1361 16.7891 10.5669 16.6551 10.0981 16.3873V16.4208C10.0981 18.1283 11.3035 19.5346 12.9106 19.8694C12.6428 19.9364 12.3079 20.0033 12.0066 20.0033C11.7722 20.0033 11.5713 19.9699 11.3369 19.9364C11.7722 21.3426 13.078 22.3471 14.6182 22.3806C13.4128 23.3181 11.9061 23.8873 10.2655 23.8873C9.96418 23.8873 9.69632 23.8538 9.42847 23.8203C10.9686 24.8248 12.8102 25.394 14.8191 25.394C21.2811 25.394 24.7968 20.0703 24.7968 15.4163C24.7968 15.2489 24.7968 15.1149 24.7968 14.9475Z" fill="#183C75"/>
</svg>

<svg xmlns="http://www.w3.org/2000/svg" fill="none" viewBox="0 0 36 37"><circle cx="18" cy="18.43" r="18" fill="#F0F3FF"/><path fill="#183C75" d="M24.797 14.947a7.446 7.446 0 0 0 1.74-1.807 6.586 6.586 0 0 1-2.008.535 3.435 3.435 0 0 0 1.54-1.942c-.67.402-1.44.703-2.21.87a3.516 3.516 0 0 0-2.578-1.104 3.515 3.515 0 0 0-3.515 3.515c0 .268.033.536.1.804a10.2 10.2 0 0 1-7.266-3.683 3.42 3.42 0 0 0-.468 1.775c0 1.205.602 2.276 1.573 2.913-.569-.034-1.138-.168-1.607-.436v.034a3.52 3.52 0 0 0 2.813 3.448 3.923 3.923 0 0 1-.904.134c-.235 0-.436-.033-.67-.067a3.499 3.499 0 0 0 3.281 2.445 7.068 7.068 0 0 1-4.353 1.506 6.52 6.52 0 0 1-.837-.067c1.54 1.005 3.382 1.574 5.391 1.574 6.462 0 9.978-5.324 9.978-9.978v-.469z"/></svg>
